X: 7
T: Trip to Dilington    [G]
O: 1779
R: reel
S: Image from Darlene Wigton, June 2017
Z: 2017 John Chambers <jc:trillian.mit.edu>
N: The B part is repeated in the original, but the dancers didn't agree and the dance has 5 phrases.
L: 1/8
M: C
K: G
% - - - - - - - - - -
% Voice 1 may be adjusted for readability.
V: 1 brace=2 staves=2
"A"|:\
"G"G2Bd g2dB | g2dB "D"AFED |\
"G"G2Bd g2dB | "D7"AGAB "G"G4 \
"B":|\
"G"B2dB "D"Adef | "A"ge"D"fd "A7"^c2A2 |
"G"g2bg "D"fgaf | "A7"ged^c "D"d4 \
"C"|:\
"G"G,2B,D GBdB | "Am"AcEA "D7"GFED |\
"G"G,2B,D GBdB |"D7"AGAB "G"G4 :| [b2G,2]
% - - - - - - - - - -
% Voice 2 preserves the original staff layout.
V: 2 clef=bass middle=d
|:\
g4 g4 | g2G2 d4 |\
g4 G4 | d2d2 G2g2 \
:|\
g4 f2d2 | ^c2d2 a4 |
b2^c'2 d'2d2 | a2A2 d2D2 \
|:\
B4 G4 | c2A2 d4 |\
B4 G2B2 | d2D2 G4 :| [d'2D2]
% - - - - - - - - - -
%%begintext align
%% The first Cu. hands 3 round with the second Lady .|
%% the same with the 2d Gent.n :|
%% lead down two Cu. up again and cast off :|.
%% Allemande with your partner with the Right hand .||
%% Allemande with the Left hand .||.
%%endtext

%%sep 1 1 500
%%sep 1 1 500

